teeny/solid/send.svg

<svg width="15" height="15" viewBox="0 0 15 15" fill="none" xmlns="http://www.w3.org/2000/svg">
<path d="M14.9541 0.709802C14.93 0.761862 14.8965 0.810638 14.8536 0.853553L5.40076 10.3064L8.07126 14.7573C8.16786 14.9183 8.34653 15.0116 8.53386 14.9989C8.72119 14.9862 8.88561 14.8696 8.95958 14.697L14.9541 0.709802Z" fill="black"/>
<path d="M4.69366 9.59931L0.242756 6.92876C0.0817496 6.83216 -0.0115621 6.65349 0.00115182 6.46616C0.0138657 6.27883 0.130462 6.11441 0.303045 6.04044L14.293 0.0447451C14.2399 0.0688812 14.1902 0.102782 14.1465 0.146447L4.69366 9.59931Z" fill="black"/>
</svg>

<svg viewBox="0 0 15 15" xmlns="http://www.w3.org/2000/svg"><g><path d="M14.95.7c-.03.05-.06.1-.11.14l-9.46 9.45 2.67 4.45c.09.16.27.25.46.24 .18-.02.35-.13.42-.31L14.92.68Z"/><path d="M4.69 9.59L.23 6.91c-.17-.1-.26-.28-.25-.47 .01-.19.12-.36.3-.43l13.98-6c-.06.02-.11.05-.15.1L4.65 9.56Z"/></g></svg>
